WindowsPhone/svg/appbar.window.minimize.svg

﻿<?xml version="1.0" encoding="utf-8"?>
<!DOCTYPE svg PUBLIC "-//W3C//DTD SVG 1.1//EN" "http://www.w3.org/Graphics/SVG/1.1/DTD/svg11.dtd">
<svg xmlns="http://www.w3.org/2000/svg" xmlns:xlink="http://www.w3.org/1999/xlink" version="1.1" baseProfile="full" width="76" height="76" viewBox="0 0 76.00 76.00" enable-background="new 0 0 76.00 76.00" xml:space="preserve">
	<path fill="#000000" fill-opacity="1" stroke-width="0.2" stroke-linejoin="round" d="M 33,48L 33,54L 54,54L 54,40L 45,40L 45,34L 57,34L 57,57L 30,57L 30,48L 33,48 Z M 55,19L 55,31L 52,31L 52,27L 23,27L 23,46L 27,46L 27,49L 20,49L 20,19L 55,19 Z M 25.75,41L 34.75,41L 26.75,33L 30,29.75L 38,37.75L 38,28.75L 42,32.75L 42,45L 29.75,45L 25.75,41 Z "/>
</svg>

<?xml version="1.0" encoding="UTF-8" standalone="no"?>
<svg
   xmlns:dc="http://purl.org/dc/elements/1.1/"
   xmlns:cc="http://creativecommons.org/ns#"
   xmlns:rdf="http://www.w3.org/1999/02/22-rdf-syntax-ns#"
   xmlns:svg="http://www.w3.org/2000/svg"
   xmlns="http://www.w3.org/2000/svg"
   xmlns:sodipodi="http://sodipodi.sourceforge.net/DTD/sodipodi-0.dtd"
   xmlns:inkscape="http://www.inkscape.org/namespaces/inkscape"
   version="1.1"
   width="76"
   height="76"
   viewBox="0 0 76.00 76.00"
   enable-background="new 0 0 76.00 76.00"
   xml:space="preserve"
   id="svg2"
   inkscape:version="0.91 r13725"
   sodipodi:docname="appbar.window.minimize.svg"><metadata
     id="metadata10"><rdf:RDF><cc:Work
         rdf:about=""><dc:format>image/svg+xml</dc:format><dc:type
           rdf:resource="http://purl.org/dc/dcmitype/StillImage" /></cc:Work></rdf:RDF></metadata><defs
     id="defs8" /><sodipodi:namedview
     pagecolor="#ffffff"
     bordercolor="#666666"
     borderopacity="1"
     objecttolerance="10"
     gridtolerance="10"
     guidetolerance="10"
     inkscape:pageopacity="0"
     inkscape:pageshadow="2"
     inkscape:window-width="733"
     inkscape:window-height="480"
     id="namedview6"
     showgrid="false"
     inkscape:zoom="1"
     inkscape:cx="38"
     inkscape:cy="38"
     inkscape:window-x="911"
     inkscape:window-y="601"
     inkscape:window-maximized="0"
     inkscape:current-layer="layer2" /><g
     inkscape:groupmode="layer"
     id="layer1"
     inkscape:label="active"
     style="display:none"><path
       style="fill:#000000;fill-opacity:1;stroke-width:0.2;stroke-linejoin:round"
       d="m 33,48 0,6 21,0 0,-14 -9,0 0,-6 12,0 0,23 -27,0 0,-9 3,0 z m 22,-29 0,12 -3,0 0,-4 -29,0 0,19 4,0 0,3 -7,0 0,-30 35,0 z m -29.25,22 9,0 -8,-8 3.25,-3.25 8,8 0,-9 4,4 0,12.25 -12.25,0 -4,-4 z"
       id="path4"
       inkscape:connector-curvature="0" /></g><g
     inkscape:groupmode="layer"
     id="layer2"
     inkscape:label="inactive"
     style="display:inline"><path
       id="path3340"
       d="m 33,48 0,6 21,0 0,-14 -9,0 0,-6 12,0 0,23 -27,0 0,-9 3,0 z m 22,-29 0,12 -3,0 0,-4 -29,0 0,19 4,0 0,3 -7,0 0,-30 35,0 z m -29.25,22 9,0 -8,-8 3.25,-3.25 8,8 0,-9 4,4 0,12.25 -12.25,0 -4,-4 z"
       style="fill:#9b9b9b;fill-opacity:1;stroke-width:0.2;stroke-linejoin:round"
       inkscape:connector-curvature="0" /></g></svg>
